packages/foundations/assets/icons/functional/images/notification/question_mark_circle_20_filled.svg

<svg width="20" height="20" viewBox="0 0 20 20" fill="none" xmlns="http://www.w3.org/2000/svg">
<g clip-path="url(#clip0_2214_8106)">
<path fill-rule="evenodd" clip-rule="evenodd" d="M10.0039 2C14.4099 2 18 5.5752 18 9.9943C18 14.4049 14.4249 18 10.0049 18C5.5682 18 2 14.3836 2 9.9944C2 5.5918 5.5887 2 10.0039 2ZM9.6909 12.6829C8.9463 12.6829 8.3415 13.2692 8.3415 14.044C8.3415 14.8098 8.9309 15.3951 9.7117 15.3951C10.4798 15.3951 11.0537 14.792 11.0537 14.0435C11.0537 13.3119 10.4683 12.6829 9.6909 12.6829ZM9.8796 4.761C8.5561 4.761 7.4508 5.3156 7.0146 5.5805L7.9122 7.7268C8.4728 7.4307 9.2585 7.122 9.8304 7.122C10.4403 7.122 10.5659 7.4732 10.5659 7.751C10.5659 8.8791 8.4976 8.8219 8.4976 10.8098V12H10.839V10.8098C10.839 10.0219 12.9116 9.5301 12.9116 7.3173C12.9116 5.7374 11.639 4.761 9.8796 4.761Z" fill="#1A1C1F"/>
</g>
<defs>
<clipPath id="clip0_2214_8106">
<rect width="20" height="20" fill="white"/>
</clipPath>
</defs>
</svg>

<svg xmlns="http://www.w3.org/2000/svg" width="20" height="20" fill="none"><g clip-path="url(#a)"><path fill="#1A1C1F" fill-rule="evenodd" d="M10.004 2C14.41 2 18 5.575 18 9.994 18 14.404 14.425 18 10.005 18 5.568 18 2 14.384 2 9.994 2 5.592 5.589 2 10.004 2M9.69 12.683c-.745 0-1.35.586-1.35 1.361 0 .766.59 1.351 1.37 1.351.769 0 1.343-.603 1.343-1.351 0-.732-.586-1.361-1.363-1.361M9.88 4.76c-1.324 0-2.43.555-2.865.82l.897 2.146c.56-.296 1.346-.605 1.918-.605.61 0 .736.351.736.629 0 1.128-2.068 1.07-2.068 3.059V12h2.341v-1.19c0-.788 2.073-1.28 2.073-3.493 0-1.58-1.273-2.556-3.032-2.556" clip-rule="evenodd"/></g><defs><clipPath id="a"><path fill="#fff" d="M0 0h20v20H0z"/></clipPath></defs></svg>
